X: 056
M: 2/4
L: 1/8
K: F
|:\
c2dF | c2dF | c2Gc | BFcF |\
c2dF | c2dF | B2GB | AFF2 :|
|:\

